X:36
T:Reel 36
M:4/4
K:Gmaj
L:1/8
 (3GGG BG dGBG|dGBd efg2|GA (3BAG FAAc| (3Bcd ef gedB|GBAB G2 (3BAG |dGBG efaf|gfaf gfed|efga bgg2|g2bg dgbg|g2bg fga2|g2bg dgbg|befg ac'ba|g2bg dgbg|g2bg fgac'|bd'af gedc|cBAB cdef|
